lib/healthicons/icons/solid/specialties/nephrology.svg

<svg fill="none" height="48" viewBox="0 0 48 48" width="48" xmlns="http://www.w3.org/2000/svg"><path clip-rule="evenodd" d="m6 9c0-1.65685 1.34315-3 3-3h30c1.6569 0 3 1.34315 3 3v30c0 1.6569-1.3431 3-3 3h-12.1516v-14.6375c0-.8547.3088-1.1542.4814-1.2771.1107-.0788.2249-.124.3121-.1487.0424-.012.0744-.018.0903-.0206l.0096-.0014-.0068.0007-.0065.0005-.0041.0004-.0023.0001-.0012.0001s-.0012.0001-.0698-.9976c-.0686-.9976-.0699-.9975-.0699-.9975l-.0013.0001-.0028.0002-.0061.0004-.0143.0013c-.0104.0009-.0228.0021-.0368.0037-.0282.0031-.0635.0077-.1049.0144-.0826.0132-.1915.035-.3181.0709-.2508.071-.5873.2018-.9273.4439-.7287.519-1.3212 1.4413-1.3212 2.9062v14.6375h-1.8364v-14.6375c0-1.4649-.5925-2.3872-1.3213-2.9062-.34-.2421-.6764-.3729-.9272-.4439-.1266-.0359-.2355-.0577-.3181-.0709-.0415-.0067-.0768-.0113-.1049-.0144-.0141-.0016-.0264-.0028-.0369-.0037l-.0143-.0013-.0061-.0004-.0027-.0002-.0013-.0001s-.0013-.0001-.0699.9975c-.0686.9977-.0698.9976-.0698.9976l-.0012-.0001-.0023-.0001-.0041-.0004-.0066-.0005-.0067-.0007.0095.0014c.016.0026.048.0086.0904.0206.0871.0247.2014.0699.3121.1487.1725.1229.4814.4224.4814 1.2771v14.6375h-12.012c-1.65685 0-3-1.3431-3-3zm26.9643 22.2476c8.623-3.6369 5.2199-15.913-.766-17.9413-2.4831-.8415-5.2232 1.95-5.2056 3.6833.0076.7494.3943 1.4801.7972 2.2414.5289.9994 1.0858 2.0516.8493 3.2681-.4166 2.1431-.8832 5.7591.3191 7.4756 1.2024 1.7164 2.4115 1.9455 4.006 1.2729zm-18.0682 0c-8.62302-3.6369-5.21993-15.913.7659-17.9413 2.4832-.8415 5.2232 1.95 5.2057 3.6833-.0076.7494-.3943 1.4801-.7972 2.2414-.5289.9994-1.0858 2.0516-.8493 3.2681.4165 2.1431.8832 5.7591-.3192 7.4756-1.2023 1.7164-2.4114 1.9455-4.0059 1.2729z" fill="#333" fill-rule="evenodd"/></svg>

<svg width="48" height="48" viewBox="0 0 48 48" fill="none" xmlns="http://www.w3.org/2000/svg">
<path fill-rule="evenodd" clip-rule="evenodd" d="M6 9C6 7.34315 7.34315 6 9 6H39C40.6569 6 42 7.34315 42 9V39C42 40.6569 40.6569 42 39 42H26.8484V27.3625C26.8484 26.5078 27.1572 26.2083 27.3298 26.0854C27.4405 26.0066 27.5547 25.9614 27.6419 25.9367C27.6843 25.9247 27.7163 25.9187 27.7322 25.9161L27.7418 25.9147L27.735 25.9154L27.7285 25.9159L27.7244 25.9163L27.7221 25.9164L27.7209 25.9165C27.7209 25.9165 27.7197 25.9166 27.6511 24.9189C27.5825 23.9213 27.5812 23.9214 27.5812 23.9214L27.5799 23.9215L27.5771 23.9217L27.571 23.9221L27.5567 23.9234C27.5463 23.9243 27.5339 23.9255 27.5199 23.9271C27.4917 23.9302 27.4564 23.9348 27.415 23.9415C27.3324 23.9547 27.2235 23.9765 27.0969 24.0124C26.8461 24.0834 26.5096 24.2142 26.1696 24.4563C25.4409 24.9753 24.8484 25.8976 24.8484 27.3625V42H23.012V27.3625C23.012 25.8976 22.4195 24.9753 21.6907 24.4563C21.3507 24.2142 21.0143 24.0834 20.7635 24.0124C20.6369 23.9765 20.528 23.9547 20.4454 23.9415C20.4039 23.9348 20.3686 23.9302 20.3405 23.9271C20.3264 23.9255 20.3141 23.9243 20.3036 23.9234L20.2893 23.9221L20.2832 23.9217L20.2805 23.9215L20.2792 23.9214C20.2792 23.9214 20.2779 23.9213 20.2093 24.9189C20.1407 25.9166 20.1395 25.9165 20.1395 25.9165L20.1383 25.9164L20.136 25.9163L20.1319 25.9159L20.1253 25.9154L20.1186 25.9147L20.1281 25.9161C20.1441 25.9187 20.1761 25.9247 20.2185 25.9367C20.3056 25.9614 20.4199 26.0066 20.5306 26.0854C20.7031 26.2083 21.012 26.5078 21.012 27.3625L21.012 42H9C7.34315 42 6 40.6569 6 39V9ZM32.9643 31.2476C41.5873 27.6107 38.1842 15.3346 32.1983 13.3063C29.7152 12.4648 26.9751 15.2563 26.9927 16.9896C27.0003 17.739 27.387 18.4697 27.7899 19.231C28.3188 20.2304 28.8757 21.2826 28.6392 22.4991C28.2226 24.6422 27.756 28.2582 28.9583 29.9747C30.1607 31.6911 31.3698 31.9202 32.9643 31.2476ZM14.8961 31.2476C6.27308 27.6107 9.67617 15.3346 15.662 13.3063C18.1452 12.4648 20.8852 15.2563 20.8677 16.9896C20.8601 17.739 20.4734 18.4697 20.0705 19.231C19.5416 20.2304 18.9847 21.2826 19.2212 22.4991C19.6377 24.6422 20.1044 28.2582 18.902 29.9747C17.6997 31.6911 16.4906 31.9202 14.8961 31.2476Z" fill="#333333"/>
</svg>
